assets/img/post/premiere.svg

<svg enable-background="new 0 0 2500 2438" viewBox="0 0 2500 2438" xmlns="http://www.w3.org/2000/svg"><path d="m104.2 104.4h2291.7v2229.2h-2291.7zm-104.2 2333.4h2500v-2437.6h-2500zm1500-1408.4c0-12.5 0-42.7-5.2-101 0-8.3 1-10.4 8.3-13.5 63.5-26 212.5-71.9 381.2-71.9 8.3 0 12.5 2.1 12.5 10.4v151c0 8.3-3.1 10.4-11.5 10.4-65.6-3.1-160.4 5.2-196.9 20.8v656.3c0 8.3-3.1 12.5-12.5 12.5h-163.5c-8.3 0-12.5-3.1-12.5-12.5zm-666.7 94.8c24 2.1 42.7 2.1 84.4 2.1 121.9 0 236.5-42.7 236.5-208.3 0-132.3-81.3-199-220.8-199-41.7 0-81.2 2.1-100 3.1zm-184.3-553.1c0-7.3 2.1-12.5 10.4-12.5 66.7-3.1 164.6-5.2 267.7-5.2 288.5 0 414.6 158.3 414.6 361.5 0 264.6-191.7 378.1-427.1 378.1-39.6 0-53.1-2.1-81.3-2.1v400c0 8.3-3.1 12.5-12.5 12.5h-160.4c-8.3 0-12.5-3.1-12.5-12.5v-1119.8z" fill="#fff"/></svg>

<?xml version="1.0" encoding="utf-8"?>
<!-- Generator: Adobe Illustrator 22.1.0, SVG Export Plug-In . SVG Version: 6.00 Build 0)  -->
<svg version="1.1" id="Layer_1" xmlns="http://www.w3.org/2000/svg" xmlns:xlink="http://www.w3.org/1999/xlink" x="0px" y="0px"
	 viewBox="0 0 2500 2438" style="enable-background:new 0 0 2500 2438;" xml:space="preserve">
<style type="text/css">
	.st0{fill:#FFFFFF;}
</style>
<path class="st0" d="M104.2,104.4h2291.7v2229.2H104.2V104.4z M0,2437.8h2500V0.2H0V2437.8z M1500,1029.4c0-12.5,0-42.7-5.2-101
	c0-8.3,1-10.4,8.3-13.5c63.5-26,212.5-71.9,381.2-71.9c8.3,0,12.5,2.1,12.5,10.4v151c0,8.3-3.1,10.4-11.5,10.4
	c-65.6-3.1-160.4,5.2-196.9,20.8v656.3c0,8.3-3.1,12.5-12.5,12.5h-163.5c-8.3,0-12.5-3.1-12.5-12.5L1500,1029.4L1500,1029.4z
	 M833.3,1124.2c24,2.1,42.7,2.1,84.4,2.1c121.9,0,236.5-42.7,236.5-208.3c0-132.3-81.3-199-220.8-199c-41.7,0-81.2,2.1-100,3.1
	L833.3,1124.2L833.3,1124.2z M649,571.1c0-7.3,2.1-12.5,10.4-12.5c66.7-3.1,164.6-5.2,267.7-5.2c288.5,0,414.6,158.3,414.6,361.5
	c0,264.6-191.7,378.1-427.1,378.1c-39.6,0-53.1-2.1-81.3-2.1v400c0,8.3-3.1,12.5-12.5,12.5H660.4c-8.3,0-12.5-3.1-12.5-12.5V571.1
	L649,571.1L649,571.1z"/>
</svg>
